common/resources/fonts/svg/paragraph-right3.svg

<?xml version="1.0" encoding="UTF-8" standalone="no"?>
<svg width="1024px" height="1024px" viewBox="0 0 1024 1024" version="1.1" xmlns="http://www.w3.org/2000/svg" xmlns:xlink="http://www.w3.org/1999/xlink">
    <!-- Generator: Sketch 3.7.1 (28215) - http://www.bohemiancoding.com/sketch -->
    <title>paragraph-right3</title>
    <desc>Created with Sketch.</desc>
    <defs></defs>
    <g id="Page-1" stroke="none" stroke-width="1" fill="none" fill-rule="evenodd">
        <g id="paragraph-right3" fill="#000000">
            <path d="M65,120.9375 L960,120.9375 L960,232.8125 L65,232.8125 L65,120.9375 Z M400.625,344.6875 L960,344.6875 L960,456.5625 L400.625,456.5625 L400.625,344.6875 Z M400.625,792.1875 L960,792.1875 L960,904.0625 L400.625,904.0625 L400.625,792.1875 Z M65,568.4375 L960,568.4375 L960,680.3125 L65,680.3125 L65,568.4375 Z" id="Shape"></path>
        </g>
    </g>
</svg>

<svg width="1024" height="1024" viewBox="0 0 1024 1024">
    <path d="M65 120.938h895v111.874H65V120.938zm335.625 223.75H960v111.875H400.625V344.688zm0 447.5H960v111.875H400.625V792.188zM65 568.438h895v111.875H65V568.438z" fill-rule="evenodd"/>
</svg>
